FINK
CUT[IN SACHSENLAND LAG EINST EIN SCHLOSS]
REG[Europa, Mitteleuropa, Deutschland]
KEY[F0869  16  G 6/8]
MEL[-5_  1__1_3__3_  5__5_3__
    3_  2_.34_-5_.-6-7_  2__.1_0_
    -5_  1__1_3__3_  5__5_3__
    3_  2_.34_-5_.-6-7_  2__.1_0_
    -5_  2__2_2__2_  4_3_2_1__
    12  2__2_2__2_  4_3_2_1__
    12  3__3_3__1_  -6__.4__
    2_  1__1_-7_.-6-7_  2__.1_0_
    12  3__3_3__1_  -6__.4__
    2_  1__1_-7_.-6-7_  2__.1_0_ //] >>
FCT[erzaehlendes Volks - Lied, Ballade]
